Adwaita++-Light/panel/16/update-high.svg

<svg height="16" width="16" xmlns="http://www.w3.org/2000/svg">
  <path d="m7 1c-3.8659932 0-7 3.1340068-7 7 0 3.865993 3.1340068 7 7 7 3.865993 0 7-3.134007 7-7 0-3.8659932-3.134007-7-7-7zm-1 3h2v4h2.5l-3.5 5-3.5-5h2.5z" fill="#444"/>
  <circle cx="14.5" cy="13.5" fill="#4285f4" r="1.5"/>
</svg>

<svg xmlns="http://www.w3.org/2000/svg" width="16" height="16" version="1.1">
 <defs>
  <style id="current-color-scheme" type="text/css">
   .ColorScheme-Text { color:#444444; } .ColorScheme-Highlight { color:#4285f4; }
  </style>
 </defs>
 <path style="fill:currentColor" class="ColorScheme-Text" d="M 7,1 C 3.1340068,1 0,4.1340068 0,8 c 0,3.865993 3.1340068,7 7,7 3.865993,0 7,-3.134007 7,-7 C 14,4.1340068 10.865993,1 7,1 Z M 6,4 8,4 8,8 10.5,8 7,13 3.5,8 6,8 Z"/>
 <circle style="fill:currentColor" class="ColorScheme-Highlight" cx="14.5" cy="13.5" r="1.5"/>
</svg>
